X:1
T:St. Vincent (Uglow), LM
T:St. Vincent (Uglow), LM
T:James Uglow, 1875
T:Public Domain Courtesy of the Cyber Hymnal™
C:James Uglow, 1875
Z:Public Domain
Z:Courtesy of the Cyber Hymnal™
%%score ( 1 2 ) ( 3 4 )
L:1/8
Q:1/4=115
M:3/4
K:E
V:1 treble 
V:2 treble 
V:3 bass 
V:4 bass 
V:1
 [GB]2 | ([GB]2 [^^F^A]2) [GB]2 | [EG]4 E2 | F3 (D[CA][B,G][DF]) | ([DF]2 E2) E2 | %5
 ([GB]2 [FA]2) [EG]2 | ([Ge]2 [Fd]2) [Ec]2 | B4 (^Ac) | ([Ec]2 [DB]2) [DB]2 | [DF]4 [^EG]2 x2 | %10
 [GB]2 [FA]2 [DF]2 | (G2 B2) ([EA][CF]) | (E2 D2) [B,D]2 | ([B,E]2 [DF]2) [EG]2 | (A2 B2) [Ec]2 | %15
 (BE) G2 [DF]2 | ([DF]2 E2) |] %17
V:2
 x2 | x6 | x4 E2 | E2 x5 | x2 E2 E2 | x6 | x6 | (DEGF) E2 | x6 | x8 | x6 | E4 x2 | B,4 x2 | x6 | %14
 E4 x2 | E2 G2 x2 | x2 E2 |] %17
V:3
 [E,B,]2 | (B,2 C2) [E,B,]2 | [E,B,]4 [G,,B,]2 | B,3 (D,E,A,) x | (A,2 G,2) [E,G,]2 | %5
 (B,2 D2) [E,E]2 | ([C,G,]2 [D,^B,]2) [E,C]2 | (DCED) (C^A,) | (^A,2 B,2) [B,,B,]2 | %9
 B,4 A,2 (B,C) | [F,C]4 B,2 | ([E,B,]2 [G,,=D]2) (CA,) | (G,2 F,2) [B,,F,]2 | (G,2 A,2) [=D,B,]2 | %14
 ([C,A,]2 [B,,G,]2) [^A,,^^F,]2 | (G,2 B,2) [B,,A,]2 | (A,2 G,2) |] %17
V:4
 x2 | E,4 x2 | x6 | B,,4 B,,2 x | E,4 x2 | E,4 x2 | x6 | F,4 F,2 | B,,4 x2 | (B,2 G,2) x4 | %10
 x4 B,2 | x4 A,,2 | B,,4 x2 | E,4 x2 | x6 | B,,4 x2 | E,,4 |] %17

